assets/icons/qvision/movie_filter.svg

<svg xmlns="http://www.w3.org/2000/svg" height="24" viewBox="0 0 24 24" width="24"><path d="M0 0h24v24H0z" fill="none"/><path d="M18 4l2 3h-3l-2-3h-2l2 3h-3l-2-3H8l2 3H7L5 4H4c-1.1 0-1.99.9-1.99 2L2 18c0 1.1.9 2 2 2h16c1.1 0 2-.9 2-2V4h-4zm-6.75 11.25L10 18l-1.25-2.75L6 14l2.75-1.25L10 10l1.25 2.75L14 14l-2.75 1.25zm5.69-3.31L16 14l-.94-2.06L13 11l2.06-.94L16 8l.94 2.06L19 11l-2.06.94z"/></svg>

<svg width="24" height="24" viewBox="0 0 24 24" fill="none" xmlns="http://www.w3.org/2000/svg">
<g clip-path="url(#clip0_147_3602)">
<path d="M18 4L20 7H17L15 4H13L15 7H12L10 4H8L10 7H7L5 4H4C2.9 4 2.01 4.9 2.01 6L2 18C2 19.1 2.9 20 4 20H20C21.1 20 22 19.1 22 18V4H18ZM11.25 15.25L10 18L8.75 15.25L6 14L8.75 12.75L10 10L11.25 12.75L14 14L11.25 15.25ZM16.94 11.94L16 14L15.06 11.94L13 11L15.06 10.06L16 8L16.94 10.06L19 11L16.94 11.94Z" fill="#323232"/>
</g>
<defs>
<clipPath id="clip0_147_3602">
<rect width="24" height="24" fill="white"/>
</clipPath>
</defs>
</svg>
